svg/u1f9f9.svg

<svg viewBox="0 0 128 128" xmlns="http://www.w3.org/2000/svg">
  <g>
    <g>
      <path d="M56.31,74.64c-0.88,0-1.71-0.34-2.34-0.97C53.35,73.05,53,72.22,53,71.33 c0-0.88,0.34-1.71,0.97-2.34l64.56-64.56c0.62-0.62,1.46-0.97,2.34-0.97s1.71,0.34,2.34,0.97c1.29,1.29,1.29,3.39,0,4.68 L58.65,73.67C58.02,74.3,57.19,74.64,56.31,74.64z" fill="#A65F3E"/>
      <path d="M120.87,4c0.71,0,1.42,0.27,1.96,0.81c1.08,1.08,1.08,2.84,0,3.93L58.27,73.3 c-0.54,0.54-1.25,0.81-1.96,0.81c-0.71,0-1.42-0.27-1.96-0.81c-1.08-1.08-1.08-2.84,0-3.93l64.56-64.56 C119.45,4.27,120.16,4,120.87,4 M120.87,2.94c-1.03,0-1.99,0.4-2.71,1.12L53.6,68.62c-0.73,0.72-1.12,1.69-1.12,2.71 c0,1.03,0.4,1.99,1.12,2.71c0.72,0.72,1.69,1.12,2.71,1.12c1.03,0,1.99-0.4,2.71-1.12l64.56-64.56c1.5-1.5,1.5-3.93,0-5.43 C122.86,3.34,121.89,2.94,120.87,2.94L120.87,2.94z" fill="#A65F3E"/>
    </g>
    <path d="M5.61,91.49l31.11,31.11c6.99-7.7,12.97-16.45,16.19-26.5c0.23-0.73,0.27-1.92,1.02-2.87 c3.61-4.53,14.92-16.06,5.65-25.33c-8.85-8.85-19.5,1.81-23.95,5.48c-1.36,1.13-3.07,1.83-4.85,2.21 C18.84,78.2,6.51,90.54,5.61,91.49z" fill="#FFE082"/>
    <path d="M59.07,60.61c0.77-0.4,1.87-0.9,3.15-0.68c0.78,0.14,1.89,1.08,3.04,2.23 c1.15,1.15,2.23,2.44,2.55,3.27c0.33,0.83-0.03,1.94-0.03,1.94c-0.93,1.84-3.07,5.52-4.8,4.99c-1.93-0.59-3.86-2.44-5.29-3.83 c-0.81-0.78-1.65-1.64-2.2-2.63c-0.77-1.41,0.06-2.59,1.03-3.57C57.21,61.67,58.38,60.97,59.07,60.61z" fill="#FFE082"/>
    <path d="M58.61,63.79c0.93,0.88,1.68,1.95,2.71,2.71c2.02,1.48,3.64,0.77,4.96-0.42 c0.39-0.35,0.98-0.8,1.36-0.44c0.11,0.11,0.16,0.26,0.2,0.41c0.16,0.73-0.06,1.49-0.36,2.18c-0.74,1.69-1.95,3.17-3.46,4.23 c-0.26,0.18-0.57,0.36-0.88,0.26c-0.19-0.06-0.33-0.21-0.45-0.36c-1.66-1.95-2.96-4.26-5.01-5.79c-0.82-0.61-2.91-1.06-2.38-2.43 C56.09,62.05,57.83,63.05,58.61,63.79z" fill="#F9C248"/>
    <path d="M52.91,96.1c0.23-0.73,0.27-1.92,1.02-2.87c4.12-5.16,9.78-11.04,9.16-18.2 c-0.08-0.98-1.35-6-2.74-4.11c-0.31,0.42-0.19,2.52-0.23,3.03c-0.8,9.38-8.16,14.57-9.52,16.19c-1.36,1.63-1.32,3.15-2.49,5.56 c-1.31,2.71-2.99,5.24-4.88,7.58c-3.03,3.75-6.6,7.03-10.29,10.15c-0.61,0.51-1.24,1.04-1.62,1.74c-1.05,1.93,1.22,3.25,2.44,4.46 c0.98,0.98,1.96,1.96,2.95,2.95C43.7,114.89,49.68,106.14,52.91,96.1z" fill="#F9C248"/>
    <path d="M62.67,73.4c0,0-3.5-6.6-8.13-8.59c0,0-0.17-0.43,0.16-0.8c0.41-0.46,0.96-0.56,1.25-0.37 c3.42,2.12,6.5,4.95,8.06,8.82C64.32,73.2,62.96,74.29,62.67,73.4z" fill="#A65F3E"/>
    <path d="M36.3,118.46c-0.8-1.25-1.94-2.4-2.54-3.66c-0.14-0.31-0.27-0.64-0.23-0.98 c0.07-0.64,1.04-1.21,1.49-1.59c0.68-0.58,1.37-1.15,2.03-1.76c1.3-1.19,2.51-2.51,3.35-4.07c0.14-0.25,0.26-0.56,0.13-0.82 c-0.28-0.52-1.9,1.22-2.2,1.49c-0.84,0.74-1.66,1.5-2.54,2.18c-1.17,0.9-3.38,2.43-4.95,1.7c-0.8-0.37-1.52-1.35-2.1-1.99 c-0.67-0.75-1.31-1.53-2.02-2.26c-1.02-1.06-2.06-2.1-3.11-3.12c-0.53-0.52-1.07-1.04-1.62-1.54c-0.41-0.37-0.49-0.53-0.03-0.98 c1.52-1.48,2.98-3.03,4.37-4.63c0.18-0.21,0.35-0.54,0.14-0.72c-0.15-0.13-0.39-0.04-0.56,0.05c-2.08,1.1-3.74,2.83-5.54,4.35 c-0.44,0.37-1.71-1.04-1.99-1.26c-0.74-0.59-1.23-0.82-0.37-1.69c3.87-3.92,7.78-7.56,12.43-10.58c0.86-0.55,1.76-1.12,2.25-2.02 c-0.09-0.24-0.44-0.21-0.69-0.12c-6.45,2.32-15.12,10.33-15.86,11.04c-1.3,1.26-3.63-1.65-7.08-3.85c-1.18-0.75,0-1.88,0.3-2.23 c2.08-2.46,4.83-5.14,4.83-5.14c-1.02,0.11-7.65,6.09-8.44,6.99c-0.67,0.77-1.35,1.47-1.4,2.54c-0.05,0.93,0.32,1.86,0.86,2.6 c6.16,8.4,20.69,22.35,25.84,26.03c3.07,2.19,4.02,1.79,5.27,0.54c0.65-0.65,0.96-1.48,0.84-2.4 C37.06,119.82,36.73,119.12,36.3,118.46z" fill="#E2A610"/>
    <g>
      <path d="M53.11,95.03c-4.22-6.54-13.04-15.49-19.68-20.19c-0.52-0.37,1.64-1.63,2.18-1.25 c6.9,4.91,14.03,12.4,18.48,19.19C54.45,93.31,53.36,95.41,53.11,95.03z" fill="#F44336"/>
      <path d="M57.54,88.62c-4.05-5.69-12.17-13.91-17.9-18.5c-0.5-0.4,1.45-1.76,1.85-1.45 c6.04,4.82,13.35,11.99,17.44,18.11C59.23,87.23,57.83,89.03,57.54,88.62z" fill="#F44336"/>
    </g>
  </g>
</svg>

<svg viewBox="0 0 128 128" xmlns="http://www.w3.org/2000/svg">
  <defs/>
  <path d="M56.31,74.64 C55.43,74.64 54.6,74.3 53.97,73.67 C53.35,73.05 53,72.22 53,71.33 C53,70.45 53.34,69.62 53.97,68.99 L118.53,4.43 C119.15,3.81 119.99,3.46 120.87,3.46 C121.75,3.46 122.58,3.8 123.21,4.43 C124.5,5.72 124.5,7.82 123.21,9.11 L58.65,73.67 C58.02,74.3 57.19,74.64 56.31,74.64 Z" fill="#A65F3E"/>
  <path d="M120.87,4 C121.58,4 122.29,4.27 122.83,4.81 C123.91,5.89 123.91,7.65 122.83,8.74 L58.27,73.3 C57.73,73.84 57.02,74.11 56.31,74.11 C55.6,74.11 54.89,73.84 54.35,73.3 C53.27,72.22 53.27,70.46 54.35,69.37 L118.91,4.81 C119.45,4.27 120.16,4 120.87,4 M120.87,2.94 C119.84,2.94 118.88,3.34 118.16,4.06 L53.6,68.62 C52.87,69.34 52.48,70.31 52.48,71.33 C52.48,72.36 52.88,73.32 53.6,74.04 C54.32,74.76 55.29,75.16 56.31,75.16 C57.34,75.16 58.3,74.76 59.02,74.04 L123.58,9.48 C125.08,7.98 125.08,5.55 123.58,4.05 C122.86,3.34 121.89,2.94 120.87,2.94 L120.87,2.94 Z" fill="#A65F3E"/>
  <path d="M5.61,91.49 L36.72,122.6 C43.71,114.9 49.69,106.15 52.91,96.1 C53.14,95.37 53.18,94.18 53.93,93.23 C57.54,88.7 68.85,77.17 59.58,67.9 C50.73,59.05 40.08,69.71 35.63,73.38 C34.27,74.51 32.56,75.21 30.78,75.59 C18.84,78.2 6.51,90.54 5.61,91.49 Z" fill="#FFE082"/>
  <path d="M59.07,60.61 C59.84,60.21 60.94,59.71 62.22,59.93 C63,60.07 64.11,61.01 65.26,62.16 C66.41,63.31 67.49,64.6 67.81,65.43 C68.14,66.26 67.78,67.37 67.78,67.37 C66.85,69.21 64.71,72.89 62.98,72.36 C61.05,71.77 59.12,69.92 57.69,68.53 C56.88,67.75 56.04,66.89 55.49,65.9 C54.72,64.49 55.55,63.31 56.52,62.33 C57.21,61.67 58.38,60.97 59.07,60.61 Z" fill="#FFE082"/>
  <path d="M58.61,63.79 C59.54,64.67 60.29,65.74 61.32,66.5 C63.34,67.98 64.96,67.27 66.28,66.08 C66.67,65.73 67.26,65.28 67.64,65.64 C67.75,65.75 67.8,65.9 67.84,66.05 C68,66.78 67.78,67.54 67.48,68.23 C66.74,69.92 65.53,71.4 64.02,72.46 C63.76,72.64 63.45,72.82 63.14,72.72 C62.95,72.66 62.81,72.51 62.69,72.36 C61.03,70.41 59.73,68.1 57.68,66.57 C56.86,65.96 54.77,65.51 55.3,64.14 C56.09,62.05 57.83,63.05 58.61,63.79 Z" fill="#F9C248"/>
  <path d="M52.91,96.1 C53.14,95.37 53.18,94.18 53.93,93.23 C58.05,88.07 63.71,82.19 63.09,75.03 C63.01,74.05 61.74,69.03 60.35,70.92 C60.04,71.34 60.16,73.44 60.12,73.95 C59.32,83.33 51.96,88.52 50.6,90.14 C49.24,91.77 49.28,93.29 48.11,95.7 C46.8,98.41 45.12,100.94 43.23,103.28 C40.2,107.03 36.63,110.31 32.94,113.43 C32.33,113.94 31.7,114.47 31.32,115.17 C30.27,117.1 32.54,118.42 33.76,119.63 C34.74,120.61 35.72,121.59 36.71,122.58 C43.7,114.89 49.68,106.14 52.91,96.1 Z" fill="#F9C248"/>
  <path d="M62.67,73.4 C62.67,73.4 59.17,66.8 54.54,64.81 C54.54,64.81 54.37,64.38 54.7,64.01 C55.11,63.55 55.66,63.45 55.95,63.64 C59.37,65.76 62.45,68.59 64.01,72.46 C64.32,73.2 62.96,74.29 62.67,73.4 Z" fill="#A65F3E"/>
  <path d="M36.3,118.46 C35.5,117.21 34.36,116.06 33.76,114.8 C33.62,114.49 33.49,114.16 33.53,113.82 C33.6,113.18 34.57,112.61 35.02,112.23 C35.7,111.65 36.39,111.08 37.05,110.47 C38.35,109.28 39.56,107.96 40.4,106.4 C40.54,106.15 40.66,105.84 40.53,105.58 C40.25,105.06 38.63,106.8 38.33,107.07 C37.49,107.81 36.67,108.57 35.79,109.25 C34.62,110.15 32.41,111.68 30.84,110.95 C30.04,110.58 29.32,109.6 28.74,108.96 C28.07,108.21 27.43,107.43 26.72,106.7 C25.7,105.64 24.66,104.6 23.61,103.58 C23.08,103.06 22.54,102.54 21.99,102.04 C21.58,101.67 21.5,101.51 21.96,101.06 C23.48,99.58 24.94,98.03 26.33,96.43 C26.51,96.22 26.68,95.89 26.47,95.71 C26.32,95.58 26.08,95.67 25.91,95.76 C23.83,96.86 22.17,98.59 20.37,100.11 C19.93,100.48 18.66,99.07 18.38,98.85 C17.64,98.26 17.15,98.03 18.01,97.16 C21.88,93.24 25.79,89.6 30.44,86.58 C31.3,86.03 32.2,85.46 32.69,84.56 C32.6,84.32 32.25,84.35 32,84.44 C25.55,86.76 16.88,94.77 16.14,95.48 C14.84,96.74 12.51,93.83 9.06,91.63 C7.88,90.88 9.06,89.75 9.36,89.4 C11.44,86.94 14.19,84.26 14.19,84.26 C13.17,84.37 6.54,90.35 5.75,91.25 C5.08,92.02 4.4,92.72 4.35,93.79 C4.3,94.72 4.67,95.65 5.21,96.39 C11.37,104.79 25.9,118.74 31.05,122.42 C34.12,124.61 35.07,124.21 36.32,122.96 C36.97,122.31 37.28,121.48 37.16,120.56 C37.06,119.82 36.73,119.12 36.3,118.46 Z" fill="#E2A610"/>
  <path d="M53.11,95.03 C48.89,88.49 40.07,79.54 33.43,74.84 C32.91,74.47 35.07,73.21 35.61,73.59 C42.51,78.5 49.64,85.99 54.09,92.78 C54.45,93.31 53.36,95.41 53.11,95.03 Z" fill="#F44336"/>
  <path d="M57.54,88.62 C53.49,82.93 45.37,74.71 39.64,70.12 C39.14,69.72 41.09,68.36 41.49,68.67 C47.53,73.49 54.84,80.66 58.93,86.78 C59.23,87.23 57.83,89.03 57.54,88.62 Z" fill="#F44336"/>
</svg>
